icon-themes/sifr_svg/cmd/sc_alignhorizontalcenter.svg

<svg viewBox="0 0 16 16" xmlns="http://www.w3.org/2000/svg"><path d="m4 3v2h8v-2zm-2 4v2h12v-2zm4 4v2h4v-2z" fill="#555753"/></svg>

<svg xmlns="http://www.w3.org/2000/svg" viewBox="0 0 16 16">
  <path
     style="fill:#555753"
     d="M 4 3 L 4 5 L 12 5 L 12 3 L 4 3 z M 2 7 L 2 9 L 14 9 L 14 7 L 2 7 z M 6 11 L 6 13 L 10 13 L 10 11 L 6 11 z "
     />
</svg>
